Suru++-Ubuntu/apps/scalable/fofix.svg

<svg width="256" height="256" version="1.1" viewBox="0 0 67.73 67.73" xmlns="http://www.w3.org/2000/svg" xmlns:xlink="http://www.w3.org/1999/xlink">
 <defs>
  <linearGradient id="linearGradient1108" x1="296" x2="296" y1="-212" y2="236" gradientUnits="userSpaceOnUse">
   <stop style="stop-color:#ffffff" offset="0"/>
   <stop style="stop-color:#ffffff;stop-opacity:.09803922" offset=".125"/>
   <stop style="stop-color:#000000;stop-opacity:.09803922" offset=".925"/>
   <stop style="stop-color:#000000;stop-opacity:.49803922" offset="1"/>
  </linearGradient>
  <clipPath id="clipPath1082-3-36753">
   <path d="M 361.9375,-212 C 507.2348,-212 528,-191.28677 528,-46.125 V 70.125 C 528,215.28618 507.2348,236 361.9375,236 H 214.0625 C 68.7652,236 48,215.28618 48,70.125 V -46.125 C 48,-191.28677 68.7652,-212 214.0625,-212 Z" style="fill:#8c59d9"/>
  </clipPath>
  <filter id="filter904" x="-.02" y="-.03" width="1.046" height="1.05" style="color-interpolation-filters:sRGB">
   <feGaussianBlur stdDeviation="2.32"/>
  </filter>
  <filter id="filter4569" x="-.01" y="-.01" width="1.023" height="1.025" style="color-interpolation-filters:sRGB">
   <feGaussianBlur stdDeviation="1.16"/>
  </filter>
 </defs>
 <g transform="translate(0,-229.26666)">
  <path transform="matrix(.26458333 0 0 .26458333 -1.8735229e-8 232.67026)" d="m162.53675 3.5680001c72.64865 0 83.03125 10.356615 83.03125 82.937505v58.125005c0 72.58059-10.3826 82.9375-83.03125 82.9375h-73.937496c-72.648654 0-83.031254-10.35691-83.031254-82.9375v-58.125005c0-72.58089 10.3826-82.937505 83.031254-82.937505z" style="filter:url(#filter4569);opacity:.1"/>
  <path transform="matrix(.26458333 0 0 .26458333 -1.8735229e-8 232.67026)" d="m162.53675 5.5680001c72.64865 0 83.03125 10.356615 83.03125 82.937505v58.125005c0 72.58059-10.3826 82.9375-83.03125 82.9375h-73.937496c-72.648654 0-83.031254-10.35691-83.031254-82.9375v-58.125005c0-72.58089 10.3826-82.937505 83.031254-82.937505z" style="filter:url(#filter904);opacity:.2"/>
  <path d="m43.004515 233.61429c19.221622 0 21.968685 2.74019 21.968685 21.94388v15.37891c0 19.20362-2.747063 21.94388-21.968685 21.94388h-19.56263c-19.221622 0-21.968685-2.74026-21.968685-21.94388v-15.37891c0-19.20369 2.7470629-21.94388 21.968685-21.94388z" style="fill:#dc730e"/>
  <path d="m23.441093 292.88175c-19.221623 0-21.968687-2.82913-21.968687-22.65611v-7.93903h63.500006v7.93903c0 19.82698-2.747062 22.65611-21.968687 22.65611z" style="fill:#ffffff;opacity:.25"/>
  <path transform="matrix(.26458333 0 0 .26458333 0 229.26666)" d="m95.300781 16.431641c-0.037653 0.038955-0.079517 0.07238-0.117187 0.111328 0.071055 1.759219 0.229094 5.042971 0.617187 7.257812 0.779736 4.446501 2.476373 9.899995 3.554688 12.541016 1.078311 2.640869 1.872121 4.306402 3.482421 7.109375 1.61027 2.802935 4.33876 6.868916 6.22852 9.615234 1.8898 2.746356 3.4472 5.180325 5.06836 7.28711 1.62124 2.10667 2.60325 3.283997 4.43359 5.552734 1.83028 2.268699 4.34545 5.397778 6.51172 7.707031 2.16626 2.30914 6.36914 6.03125 6.36914 6.03125l5.44531 4.552735 5.44727-4.552735s4.20283-3.72211 6.36914-6.03125c2.16622-2.309253 4.68139-5.438332 6.51172-7.707031 1.83034-2.268737 2.81242-3.446064 4.43359-5.552734 1.6212-2.106785 3.17665-4.540754 5.06641-7.28711 1.88971-2.746318 4.61822-6.812299 6.22851-9.615234 1.61026-2.802973 2.40602-4.468506 3.48438-7.109375 1.07831-2.641021 2.77495-8.094515 3.55468-12.541016 0.13894-0.792831 0.20884-1.851511 0.29883-2.849609-0.14075-0.261543-0.25277-0.575476-0.40039-0.826172-0.63735-1.083213-1.33656-2.05934-2.10351-2.941406-0.14405-0.165671-0.32184-0.286308-0.47071-0.445313-4.23243-0.103064-8.02695-0.30664-12.77734-0.30664h-67.236329zm-74.347656 13.335937c-0.352681 0.321941-0.775918 0.579085-1.113281 0.916016-1.459592 1.45772-2.77637 3.056644-3.964844 4.810547-1.188474 1.753902-2.248715 3.66287-3.191406 5.738281s-1.767993 4.317989-2.490235 6.740234c-0.7222406 2.422245-1.3400612 5.023955-1.8671871 7.81836-0.527126 2.794404-0.9629686 5.780765-1.3203125 8.972656s-0.6367138 6.588422-0.8496094 10.203125c-0.4257911 7.229405-0.5878906 15.329734-0.5878906 24.402344v58.124999c0 9.07258 0.1620995 17.17296 0.5878906 24.40234 0.2128956 3.6147 0.4922655 7.01124 0.8496094 10.20313 0.3573439 3.19188 0.7931865 6.18021 1.3203125 8.97461 0.5271259 2.7944 1.1449465 5.39611 1.8671871 7.81836 0.722242 2.42224 1.547544 4.66482 2.490235 6.74023 0.688432 1.51564 1.512389 2.8471 2.330078 4.18946 2.370519-0.16296 6.792951-0.522 9.777344-1.41016 5.991419-1.78314 13.341905-5.66093 16.90039-8.12695 3.55849-2.46599 5.801364-4.28422 9.578125-7.9668 3.776757-3.68255 9.256586-9.9224 12.957031-14.24414 3.700449-4.32174 6.979647-7.88044 9.81836-11.58789 2.838712-3.70749 4.425547-5.95679 7.482422-10.14258 3.056882-4.18579 7.271339-9.93462 10.382812-14.88867 3.11147-4.95406 8.126954-14.56641 8.126954-14.56641l6.13477-12.45508-6.13477-12.45703s-5.015484-9.61239-8.126954-14.566404c-3.111473-4.954053-7.325934-10.702883-10.382812-14.888672-3.056875-4.185789-4.64371-6.433135-7.482422-10.140625-2.838713-3.707489-6.117911-7.266189-9.81836-11.58789-3.700445-4.321701-9.18027-10.561558-12.957031-14.244141-3.776757-3.682545-6.019635-5.502722-9.578125-7.96875-3.558485-2.466028-10.908971-6.343847-16.90039-8.126953-1.068342-0.317962-2.493058-0.479275-3.837891-0.685547zm106.4707 146.24414-9.24414 4.55273s-7.1338 3.72211-10.81055 6.03125c-3.67661 2.30926-7.944251 5.43638-11.050781 7.70508-3.106529 2.26874-4.773834 3.44606-7.52539 5.55274-2.751557 2.10678-5.392208 4.54077-8.59961 7.2871-3.207318 2.74632-7.839191 6.81426-10.572265 9.61719-2.732999 2.80298-4.083834 4.46656-5.914063 7.10742-1.830164 2.64102-4.707841 8.09647-6.03125 12.54297-0.23588 0.79283-0.355108 1.84956-0.507812 2.84766 0.002791 0.00306 0.005034 0.00671 0.007812 0.00976 2.278372 0.21139 4.519218 0.43452 6.998047 0.58008 7.236602 0.42496 15.344702 0.58594 24.425781 0.58594h73.937501c9.08108 0 17.18918-0.16098 24.42578-0.58594 3.6183-0.21247 7.01771-0.49095 10.21289-0.84765 0.16954-0.01893 0.30818-0.05094 0.47656-0.07032-0.14128-0.87477-0.26204-1.78505-0.48046-2.51953-1.32342-4.4465-4.2011-9.90195-6.03126-12.54297-1.83013-2.64086-3.18098-4.30444-5.91406-7.10742-2.733-2.80293-7.36291-6.87087-10.57031-9.61719-3.20747-2.74633-5.84813-5.18032-8.59961-7.2871-2.75163-2.10668-4.42081-3.284-7.52734-5.55274-3.10646-2.2687-7.37411-5.39582-11.05078-7.70508-3.67668-2.30914-10.81055-6.03125-10.81055-6.03125l-9.24414-4.55273z" style="fill:#dedede"/>
  <path transform="matrix(.13229167 0 0 .13229167 -4.8768016 261.66013)" d="M 361.9375,-212 C 507.2348,-212 528,-191.28677 528,-46.125 V 70.125 C 528,215.28618 507.2348,236 361.9375,236 H 214.0625 C 68.7652,236 48,215.28618 48,70.125 V -46.125 C 48,-191.28677 68.7652,-212 214.0625,-212 Z" clip-path="url(#clipPath1082-3-36753)" style="fill:none;opacity:.5;stroke-linecap:round;stroke-linejoin:round;stroke-width:8;stroke:url(#linearGradient1108)"/>
  <path d="m64.950567 252.6913c-0.143981 0.021-0.273616 0.0211-0.393774 0.0568-0.608788 0.18119-1.35563 0.57522-1.717209 0.82579-0.361575 0.25057-0.589309 0.43506-0.973066 0.80925-0.383752 0.37418-0.940716 1.00833-1.316715 1.44745-0.376005 0.43914-0.708914 0.80049-0.997358 1.17719-0.288427 0.37673-0.450066 0.60563-0.760677 1.03095-0.310599 0.42531-0.73856 1.00919-1.054713 1.51257-0.316156 0.50338-0.825791 1.48001-0.825791 1.48001l-0.623219 1.26556 0.623219 1.26607s0.509635 0.97662 0.825791 1.48001c0.316153 0.50337 0.744114 1.08725 1.054713 1.51257 0.310611 0.42532 0.47225 0.65371 0.760677 1.03043 0.288444 0.37672 0.621353 0.73858 0.997358 1.17771 0.375999 0.43912 0.932958 1.07326 1.316715 1.44745 0.383757 0.37418 0.611491 0.55919 0.973066 0.80977 0.361579 0.25057 1.108421 0.64409 1.717209 0.82527 0.108551 0.0323 0.253508 0.0489 0.390157 0.0698 0.0076-7e-3 0.01614-0.0131 0.02429-0.0196 0.0049-0.52493 0.03566-0.93235 0.03566-1.48415v-15.3789c0-0.87073-0.04375-1.53766-0.05633-2.34198z" style="fill:#dedede"/>
 </g>
</svg>

<svg xmlns="http://www.w3.org/2000/svg" xmlns:xlink="http://www.w3.org/1999/xlink" width="256" height="256" version="1.1" viewBox="0 0 67.73 67.73">
 <defs>
  <linearGradient id="linearGradient1108" x1="296" x2="296" y1="-212" y2="236" gradientUnits="userSpaceOnUse" xlink:href="#linearGradient1013"/>
  <linearGradient id="linearGradient1013">
   <stop style="stop-color:#ffffff" offset="0"/>
   <stop offset=".125" style="stop-color:#ffffff;stop-opacity:0.09803922"/>
   <stop offset=".925" style="stop-color:#000000;stop-opacity:0.09803922"/>
   <stop style="stop-color:#000000;stop-opacity:0.49803922" offset="1"/>
  </linearGradient>
  <clipPath id="clipPath1082-3-36753" clipPathUnits="userSpaceOnUse">
   <path style="fill:#8c59d9" d="M 361.9375,-212 C 507.2348,-212 528,-191.28677 528,-46.125 V 70.125 C 528,215.28618 507.2348,236 361.9375,236 H 214.0625 C 68.7652,236 48,215.28618 48,70.125 V -46.125 C 48,-191.28677 68.7652,-212 214.0625,-212 Z"/>
  </clipPath>
  <filter id="filter904" width="1.046" height="1.05" x="-.02" y="-.03" style="color-interpolation-filters:sRGB">
   <feGaussianBlur stdDeviation="2.32"/>
  </filter>
  <filter id="filter4569" width="1.023" height="1.025" x="-.01" y="-.01" style="color-interpolation-filters:sRGB">
   <feGaussianBlur stdDeviation="1.16"/>
  </filter>
 </defs>
 <g transform="translate(0,-229.26666)">
  <path style="opacity:0.1;filter:url(#filter4569)" d="m 162.53675,3.5680001 c 72.64865,0 83.03125,10.3566149 83.03125,82.9375049 v 58.125005 c 0,72.58059 -10.3826,82.9375 -83.03125,82.9375 H 88.599254 C 15.9506,227.56801 5.568,217.2111 5.568,144.63051 V 86.505505 c 0,-72.58089 10.3826,-82.9375049 83.031254,-82.9375049 z" transform="matrix(0.26458333,0,0,0.26458333,-1.8735229e-8,232.67026)"/>
  <path d="m 162.53675,5.5680001 c 72.64865,0 83.03125,10.3566149 83.03125,82.9375049 v 58.125005 c 0,72.58059 -10.3826,82.9375 -83.03125,82.9375 H 88.599254 C 15.9506,229.56801 5.568,219.2111 5.568,146.63051 V 88.505505 c 0,-72.58089 10.3826,-82.9375049 83.031254,-82.9375049 z" transform="matrix(0.26458333,0,0,0.26458333,-1.8735229e-8,232.67026)" style="opacity:0.2;filter:url(#filter904)"/>
  <path d="m 43.004515,233.61429 c 19.221622,0 21.968685,2.74019 21.968685,21.94388 v 15.37891 c 0,19.20362 -2.747063,21.94388 -21.968685,21.94388 h -19.56263 c -19.2216222,0 -21.9686851,-2.74026 -21.9686851,-21.94388 v -15.37891 c 0,-19.20369 2.7470629,-21.94388 21.9686851,-21.94388 z" style="fill:#dc730e"/>
  <path d="m 23.441093,292.88175 c -19.2216227,0 -21.9686867,-2.82913 -21.9686867,-22.65611 v -7.93903 H 64.972412 v 7.93903 c 0,19.82698 -2.747062,22.65611 -21.968687,22.65611 z" style="opacity:0.25;fill:#ffffff"/>
  <path d="M 95.300781 16.431641 C 95.263128 16.470596 95.221264 16.504021 95.183594 16.542969 C 95.254649 18.302188 95.412688 21.58594 95.800781 23.800781 C 96.580517 28.247282 98.277154 33.700776 99.355469 36.341797 C 100.43378 38.982666 101.22759 40.648199 102.83789 43.451172 C 104.44816 46.254107 107.17665 50.320088 109.06641 53.066406 C 110.95621 55.812762 112.51361 58.246731 114.13477 60.353516 C 115.75601 62.460186 116.73802 63.637513 118.56836 65.90625 C 120.39864 68.174949 122.91381 71.304028 125.08008 73.613281 C 127.24634 75.922421 131.44922 79.644531 131.44922 79.644531 L 136.89453 84.197266 L 142.3418 79.644531 C 142.3418 79.644531 146.54463 75.922421 148.71094 73.613281 C 150.87716 71.304028 153.39233 68.174949 155.22266 65.90625 C 157.053 63.637513 158.03508 62.460186 159.65625 60.353516 C 161.27745 58.246731 162.8329 55.812762 164.72266 53.066406 C 166.61237 50.320088 169.34088 46.254107 170.95117 43.451172 C 172.56143 40.648199 173.35719 38.982666 174.43555 36.341797 C 175.51386 33.700776 177.2105 28.247282 177.99023 23.800781 C 178.12917 23.00795 178.19907 21.94927 178.28906 20.951172 C 178.14831 20.689629 178.03629 20.375696 177.88867 20.125 C 177.25132 19.041787 176.55211 18.06566 175.78516 17.183594 C 175.64111 17.017923 175.46332 16.897286 175.31445 16.738281 C 171.08202 16.635217 167.2875 16.431641 162.53711 16.431641 L 95.300781 16.431641 z M 20.953125 29.767578 C 20.600444 30.089519 20.177207 30.346663 19.839844 30.683594 C 18.380252 32.141314 17.063474 33.740238 15.875 35.494141 C 14.686526 37.248043 13.626285 39.157011 12.683594 41.232422 C 11.740903 43.307833 10.915601 45.550411 10.193359 47.972656 C 9.4711184 50.394901 8.8532978 52.996611 8.3261719 55.791016 C 7.7990459 58.58542 7.3632033 61.571781 7.0058594 64.763672 C 6.6485155 67.955563 6.3691456 71.352094 6.15625 74.966797 C 5.7304589 82.196202 5.5683594 90.296531 5.5683594 99.369141 L 5.5683594 157.49414 C 5.5683594 166.56672 5.7304589 174.6671 6.15625 181.89648 C 6.3691456 185.51118 6.6485155 188.90772 7.0058594 192.09961 C 7.3632033 195.29149 7.7990459 198.27982 8.3261719 201.07422 C 8.8532978 203.86862 9.4711184 206.47033 10.193359 208.89258 C 10.915601 211.31482 11.740903 213.5574 12.683594 215.63281 C 13.372026 217.14845 14.195983 218.47991 15.013672 219.82227 C 17.384191 219.65931 21.806623 219.30027 24.791016 218.41211 C 30.782435 216.62897 38.132921 212.75118 41.691406 210.28516 C 45.249896 207.81917 47.49277 206.00094 51.269531 202.31836 C 55.046288 198.63581 60.526117 192.39596 64.226562 188.07422 C 67.927011 183.75248 71.206209 180.19378 74.044922 176.48633 C 76.883634 172.77884 78.470469 170.52954 81.527344 166.34375 C 84.584226 162.15796 88.798683 156.40913 91.910156 151.45508 C 95.021626 146.50102 100.03711 136.88867 100.03711 136.88867 L 106.17188 124.43359 L 100.03711 111.97656 C 100.03711 111.97656 95.021626 102.36417 91.910156 97.410156 C 88.798683 92.456103 84.584222 86.707273 81.527344 82.521484 C 78.470469 78.335695 76.883634 76.088349 74.044922 72.380859 C 71.206209 68.67337 67.927011 65.11467 64.226562 60.792969 C 60.526117 56.471268 55.046292 50.231411 51.269531 46.548828 C 47.492774 42.866283 45.249896 41.046106 41.691406 38.580078 C 38.132921 36.11405 30.782435 32.236231 24.791016 30.453125 C 23.722674 30.135163 22.297958 29.97385 20.953125 29.767578 z M 127.42383 176.01172 L 118.17969 180.56445 C 118.17969 180.56445 111.04589 184.28656 107.36914 186.5957 C 103.69253 188.90496 99.424889 192.03208 96.318359 194.30078 C 93.21183 196.56952 91.544525 197.74684 88.792969 199.85352 C 86.041412 201.9603 83.400761 204.39429 80.193359 207.14062 C 76.986041 209.88694 72.354168 213.95488 69.621094 216.75781 C 66.888095 219.56079 65.53726 221.22437 63.707031 223.86523 C 61.876867 226.50625 58.99919 231.9617 57.675781 236.4082 C 57.439901 237.20103 57.320673 238.25776 57.167969 239.25586 C 57.17076 239.25892 57.173003 239.26257 57.175781 239.26562 C 59.454153 239.47701 61.694999 239.70014 64.173828 239.8457 C 71.41043 240.27066 79.51853 240.43164 88.599609 240.43164 L 162.53711 240.43164 C 171.61819 240.43164 179.72629 240.27066 186.96289 239.8457 C 190.58119 239.63323 193.9806 239.35475 197.17578 238.99805 C 197.34532 238.97912 197.48396 238.94711 197.65234 238.92773 C 197.51106 238.05296 197.3903 237.14268 197.17188 236.4082 C 195.84846 231.9617 192.97078 226.50625 191.14062 223.86523 C 189.31049 221.22437 187.95964 219.56079 185.22656 216.75781 C 182.49356 213.95488 177.86365 209.88694 174.65625 207.14062 C 171.44878 204.39429 168.80812 201.9603 166.05664 199.85352 C 163.30501 197.74684 161.63583 196.56952 158.5293 194.30078 C 155.42284 192.03208 151.15519 188.90496 147.47852 186.5957 C 143.80184 184.28656 136.66797 180.56445 136.66797 180.56445 L 127.42383 176.01172 z" transform="matrix(0.26458333,0,0,0.26458333,0,229.26666)" style="fill:#dedede"/>
  <path style="opacity:0.5;fill:none;stroke:url(#linearGradient1108);stroke-width:8;stroke-linecap:round;stroke-linejoin:round" d="M 361.9375,-212 C 507.2348,-212 528,-191.28677 528,-46.125 V 70.125 C 528,215.28618 507.2348,236 361.9375,236 H 214.0625 C 68.7652,236 48,215.28618 48,70.125 V -46.125 C 48,-191.28677 68.7652,-212 214.0625,-212 Z" clip-path="url(#clipPath1082-3-36753)" transform="matrix(0.13229167,0,0,0.13229167,-4.8768016,261.66013)"/>
  <path d="m 64.950567,252.6913 c -0.143981,0.021 -0.273616,0.0211 -0.393774,0.0568 -0.608788,0.18119 -1.35563,0.57522 -1.717209,0.82579 -0.361575,0.25057 -0.589309,0.43506 -0.973066,0.80925 -0.383752,0.37418 -0.940716,1.00833 -1.316715,1.44745 -0.376005,0.43914 -0.708914,0.80049 -0.997358,1.17719 -0.288427,0.37673 -0.450066,0.60563 -0.760677,1.03095 -0.310599,0.42531 -0.73856,1.00919 -1.054713,1.51257 -0.316156,0.50338 -0.825791,1.48001 -0.825791,1.48001 l -0.623219,1.26556 0.623219,1.26607 c 0,0 0.509635,0.97662 0.825791,1.48001 0.316153,0.50337 0.744114,1.08725 1.054713,1.51257 0.310611,0.42532 0.47225,0.65371 0.760677,1.03043 0.288444,0.37672 0.621353,0.73858 0.997358,1.17771 0.375999,0.43912 0.932958,1.07326 1.316715,1.44745 0.383757,0.37418 0.611491,0.55919 0.973066,0.80977 0.361579,0.25057 1.108421,0.64409 1.717209,0.82527 0.108551,0.0323 0.253508,0.0489 0.390157,0.0698 0.0076,-0.007 0.01614,-0.0131 0.02429,-0.0196 0.0049,-0.52493 0.03566,-0.93235 0.03566,-1.48415 v -15.3789 c 0,-0.87073 -0.04375,-1.53766 -0.05633,-2.34198 z" style="fill:#dedede"/>
 </g>
</svg>
